X: 33404
T: Quiet Pint, The
R: jig
M: 6/8
K: Gmajor
|:d2 c BGd-|dcB A2G|AFD FGA|Adc BGG|
d2c BGd-|dcB A2G|AFD FGA|AcB Gz2:|
|:e2 =f edc|dGA Bcd|gag =fdd|gag =fdd|
e2 =f edc|dGA Bcd|bgg c'gb|a2g fed:|

